icons/svg/tooltip-image.svg

﻿<?xml version="1.0" encoding="utf-8"?>
<!DOCTYPE svg PUBLIC "-//W3C//DTD SVG 1.1//EN" "http://www.w3.org/Graphics/SVG/1.1/DTD/svg11.dtd">
<svg xmlns="http://www.w3.org/2000/svg" xmlns:xlink="http://www.w3.org/1999/xlink" version="1.1" baseProfile="full" width="24" height="24" viewBox="0 0 24.00 24.00" enable-background="new 0 0 24.00 24.00" xml:space="preserve">
	<path fill="#000000" fill-opacity="1" stroke-width="0.2" stroke-linejoin="round" d="M 4,2L 20,2C 21.1046,2 22,2.89543 22,4L 22,16C 22,17.1046 21.1046,18 20,18L 16,18L 12,22L 8,18L 4,18C 2.89543,18 2,17.1046 2,16L 2,4C 2,2.89543 2.89543,2 4,2 Z M 19,15L 19,7.00001L 15,11L 13,9.00001L 7,15L 19,15 Z M 7,5C 5.89543,5 5,5.89543 5,7C 5,8.10457 5.89543,9 7,9C 8.10457,9 9,8.10457 9,7C 9,5.89543 8.10457,5 7,5 Z "/>
</svg>

<svg xmlns="http://www.w3.org/2000/svg" version="1.1" baseProfile="full" width="24" height="24" viewBox="0 0 24.00 24.00" xml:space="preserve"><path fill="#000" fill-opacity="1" stroke-width=".2" stroke-linejoin="round" d="M4 2h16c1.105 0 2 .895 2 2v12c0 1.105-.895 2-2 2h-4l-4 4-4-4H4c-1.105 0-2-.895-2-2V4c0-1.105.895-2 2-2zm15 13V7l-4 4-2-2-6 6h12zM7 5c-1.105 0-2 .895-2 2s.895 2 2 2 2-.895 2-2-.895-2-2-2z"/></svg>
